X: 23823
T: Little Man In A Fix
R: waltz
M: 3/4
K: Gmajor
|:D GB|dd dc BA|GG GB AG|FF Fc BA|GG GD GB|
dd dc BA|GG GB AG|FF Fc BA|1 G2G:|2 G2G z||
|:D2|E2 G2 FE|D2 B2 AG|F2 c2 BA|G2 B2 D2|
E2 G2 FE|D2 B2 AG|F2 c2 BA|1 G2G2:|2 G2 z||

